X: 1
T: Farewell to the Tay
O: Old pipe tune
Z: John Chambers <jc:trillian.mit.edu>
M: 6/8
L: 1/8
K: A
e \
| "A"A>AA cBA | "A"e2A fec \
| "A"A>AA "F#m"cBA | "Bm"fec "E7"B2 e \
| "A"A>AA cBA | "A"e2A fec \
| "A"a2e "F#m"fec | "E7"edB "A"A2 :|
e \
| "A"a2e fec | "A"Ace fec \
| "A"a2e "F#m"fec | "Bm"Bce "E7"f2e \
| "A"a2e fec | "A"Ace fec \
| "A"a2e "F#m"fec | "E7"edB "A"A2 |]
e \
| "A"a2e fec | "A"Ace fec \
| "A"a2e "F#m"fec | "Bm"Bce "E7"f2e \
| "A"A>AA cBA | "A"e2A fec \
| "A"a2e "F#m"fec |1 "E7"edB "A"A2 |]2 "E7"efg "A"a2 |]
